X: 94
T: Ung aultre l'a
N: Derived from Ock3022-Ung_aultre_la.krn
C: Johannes Ockeghem
%%abc-version 2.0
%%abcx-abcm2ps-target-version 5.9.1 (29 Sep 2008)
%%abc-creator hum2abc beta
%%abcx-conversion-date 2019/02/17 07:26:16
%%abc-edited-by Jesse Rodin
%%abc-edited-by Chris Gage 06-25-2012
%%abcx-initial-encoding-date 2012/08/15/
%%humdrum-veritas 185329311
%%humdrum-veritas-data 2781902557
%%linebreak <none>
%%barnumbers 0
L: 1/4
M: 2/1
Q: 1/2=120
V: 1 clef=treble
V: 2 clef=treble-8
V: 3 clef=bass
K: C
[V:1] G8 | 
[V:2] z8 | 
[V:3] C,8 | 
[V:1] G4G4 | 
[V:2] z8 | 
[V:3] E,4E,4 | 
[V:1] A6GF | 
[V:2] z8 | 
[V:3] F,6E,D, | 
[V:1] E8 | 
[V:2] c8 | 
[V:3] C,8- | 
[V:1] z4E4 | 
[V:2] c4c4 | 
[V:3] C,8 | 
[V:1] F4F4 | 
[V:2] d6cB | 
[V:3] z8 | 
[V:1] F6E2 | 
[V:2] A8 | 
[V:3] C6A,2 | 
[V:1] E4F4 | 
[V:2] G4A4 | 
[V:3] B,4C4 | 
[V:1] G4E4 | 
[V:2] B4c4- | 
[V:3] z4C,4 | 
[V:1] D8 | 
[V:2] c4B4 | 
[V:3] G,8 | 
[V:1] z4E4- | 
[V:2] c8 | 
[V:3] C,8- | 
[V:1] E4E4 | 
[V:2] z4c4- | 
[V:3] C,8 | 
[V:1] E4E4 | 
[V:2] c4c4 | 
[V:3] z4C,4 | 
[V:1] E8 | 
[V:2] c4c4 | 
[V:3] C,6D,2 | 
[V:1] G4A4- | 
[V:2] c8 | 
[V:3] E,4F,4- | 
[V:1] A4G4 | 
[V:2] A4B4 | 
[V:3] F,4E,4 | 
[V:1] A8 | 
[V:2] c6BA | 
[V:3] C,2F,3E,D,C, | 
[V:1] z4B4 | 
[V:2] G8 | 
[V:3] E,3F,G,2E,2- | 
[V:1] B4B4 | 
[V:2] z4G4 | 
[V:3] E,2D,C,B,,3C, | 
[V:1] B4B4 | 
[V:2] G4G4 | 
[V:3] D,2G,,2z2G,2 | 
[V:1] c8 | 
[V:2] A4A4 | 
[V:3] E,2F,4E,F, | 
[V:1] B4G4- | 
[V:2] G8 | 
[V:3] G,4E,3C, | 
[V:1] G2A3GE2 | 
[V:2] c8 | 
[V:3] E,2F,3E,C,2 | 
[V:1] D8 | 
[V:2] B8- | 
[V:3] z2G,4F,E, | 
[V:1] z8 | 
[V:2] B8 | 
[V:3] D,C,B,,A,,G,,2G,2- | 
[V:1] d8 | 
[V:2] z8 | 
[V:3] G,F,D,2F,2G,2- | 
[V:1] d4d4 | 
[V:2] z8 | 
[V:3] G,2A,2B,4 | 
[V:1] e8 | 
[V:2] c8 | 
[V:3] C4C,4 | 
[V:1] e4e4- | 
[V:2] c4c4 | 
[V:3] z4C,4 | 
[V:1] e2d2d4- | 
[V:2] d8 | 
[V:3] G,8 | 
[V:1] d2c2c4- | 
[V:2] e8 | 
[V:3] E,4C,4 | 
[V:1] c2B2B2A2 | 
[V:2] d8 | 
[V:3] z4G,3F, | 
[V:1] c4A2B2- | 
[V:2] c4d4- | 
[V:3] A,4F,2G,2- | 
[V:1] B2A2A4- | 
[V:2] d2c2A4 | 
[V:3] G,2A,2F,4 | 
[V:1] A2^G^FG4 | 
[V:2] B8 | 
[V:3] E,8 | 
[V:1] A4z4 | 
[V:2] A8 | 
[V:3] z2F,4D,2 | 
[V:1] A4B4 | 
[V:2] z8 | 
[V:3] F,4G,4 | 
[V:1] c4c4 | 
[V:2] A4A4 | 
[V:3] F,3G,A,4 | 
[V:1] d4c4 | 
[V:2] B4c4 | 
[V:3] G,4z2A,2 | 
[V:1] B2A4B2 | 
[V:2] d8- | 
[V:3] G,2F,4G,2 | 
[V:1] A2B4G2 | 
[V:2] d4B4 | 
[V:3] F,2G,3F,E,D, | 
[V:1] AGFED4- | 
[V:2] c4B4 | 
[V:3] C,D,E,F,G,2G,,2- | 
[V:1] D2E3DG2- | 
[V:2] G8 | 
[V:3] G,,2G,4E,2 | 
[V:1] G2^FEF3E | 
[V:2] A8 | 
[V:3] D,2C,2D,4 | 
[V:1] G8 |]  
[V:2] G8 |]  
[V:3] G,,8 |]  



